packages/react-icons/icons/notification-off.svg

<svg width="24" height="24" viewBox="0 0 24 24" xmlns="http://www.w3.org/2000/svg">
<path fill-rule="evenodd" clip-rule="evenodd" d="M17.305 10.75C17.305 7.68 15.665 5.11 12.805 4.43V3.75C12.805 2.92 12.135 2.25 11.305 2.25C10.475 2.25 9.80499 2.92 9.80499 3.75V4.43C9.60291 4.48052 9.40792 4.55231 9.22001 4.62149L9.21999 4.6215L9.11499 4.66L17.305 12.85V10.75ZM11.305 21.75C12.405 21.75 13.305 20.85 13.305 19.75H9.30499C9.30499 20.85 10.195 21.75 11.305 21.75ZM3.30499 4.51L4.71499 3.1L20.695 19.08L19.285 20.49L17.545 18.75H4.71499C3.82499 18.75 3.38499 17.67 4.01499 17.04L5.30499 15.75V10.75C5.30499 9.48 5.59499 8.32 6.11499 7.32L3.30499 4.51Z" />
</svg>

<svg xmlns="http://www.w3.org/2000/svg" width="24" height="24"><path fill-rule="evenodd" d="M17.305 10.75c0-3.07-1.64-5.64-4.5-6.32v-.68c0-.83-.67-1.5-1.5-1.5s-1.5.67-1.5 1.5v.68c-.202.05-.397.122-.585.191l-.105.039 8.19 8.19v-2.1Zm-6 11c1.1 0 2-.9 2-2h-4a2 2 0 0 0 2 2Zm-8-17.24 1.41-1.41 15.98 15.98-1.41 1.41-1.74-1.74H4.715c-.89 0-1.33-1.08-.7-1.71l1.29-1.29v-5c0-1.27.29-2.43.81-3.43l-2.81-2.81Z" clip-rule="evenodd"/></svg>
